X: 30822
T: COTILLION No. 3. OPERA SETT tune 2
%R: reel, march
B: Elias Howe "The Musician's Companion" Part 3 1844 p.82 #2
S: http://imslp.org/wiki/The_Musician's_Companion_(Howe,_Elias)
Z: 2015 John Chambers <jc:trillian.mit.edu>
M: 2/4
L: 1/16
K: Bb
% - - - - - - - - - - - - - - - - - - - - - - - - - - - - -
F2 |\
F2Bc B2F2 | F2Bc B2F2 | F2B2 F2d2 | d2g2 f4 |\
e2g^f g4 | d2f=e f4 | c2ed e2 | d2c2 B2 H|]
f2 |\
bbaa ggff | bbaa ggff | fede fgab | c'8 |\
aagg ffee | aagg ffee | edcd efga | b4 "^D.C."z2 :|
% - - - - - - - - - - Dance description - - - - - - - - - -
%%begintext align
%% First 2 forward and back,
%% cross over,
%% chassa de chassa,
%% cross back,
%% ladies chain,
%% promenade 4.
%% Next 2, &c.
%%endtext
% - - - - - - - - - - - - - - - - - - - - - - - - - - - - -
%%sep 1 1 300
